src/Pure-Dark/16/symbolic/status/channel-insecure-symbolic.svg

<?xml version="1.0" encoding="UTF-8" standalone="no"?>
<svg
   width="16"
   height="16"
   version="1.1"
   id="svg2"
   sodipodi:docname="channel-insecure-symbolic.svg"
   inkscape:version="1.4.2 (ebf0e940d0, 2025-05-08)"
   xmlns:inkscape="http://www.inkscape.org/namespaces/inkscape"
   xmlns:sodipodi="http://sodipodi.sourceforge.net/DTD/sodipodi-0.dtd"
   xmlns="http://www.w3.org/2000/svg"
   xmlns:svg="http://www.w3.org/2000/svg">
  <defs
     id="defs2">
     <style
        id="current-color-scheme"
        type="text/css">
        .ColorScheme-Text { color:#f2f2f2; }
        .ColorScheme-NeutralText { color:#f67400; }
        .ColorScheme-PositiveText { color:#37c837; }
        .ColorScheme-NegativeText { color:#f44336; }
     </style>
  </defs>
  <sodipodi:namedview
     id="namedview2"
     pagecolor="#ffffff"
     bordercolor="#000000"
     borderopacity="0.25"
     inkscape:showpageshadow="2"
     inkscape:pageopacity="0.0"
     inkscape:pagecheckerboard="0"
     inkscape:deskcolor="#d1d1d1"
     inkscape:zoom="49.6875"
     inkscape:cx="8"
     inkscape:cy="8"
     inkscape:window-width="1920"
     inkscape:window-height="1010"
     inkscape:window-x="0"
     inkscape:window-y="0"
     inkscape:window-maximized="1"
     inkscape:current-layer="svg2" />
  <path
     id="path1"
     style="fill:currentColor"
     class="ColorScheme-Text"
     d="M 8 0 C 5.784 0 4 1.784 4 4 L 4 4.8847656 L 5 5.8847656 L 5 4 C 5 2.338 6.338 1 8 1 C 9.662 1 11 2.338 11 4 L 11 6 L 5.1152344 6 L 6.1152344 7 L 12 7 C 12.554 7 13 7.446 13 8 L 13 13 A 0.984 0.984 0 0 1 12.753906 13.638672 L 13.46875 14.353516 C 13.79675 13.997516 14 13.524 14 13 L 14 8 C 14 6.892 13.108 6 12 6 L 12 4 C 12 1.784 10.216 0 8 0 z M 3.4394531 6.0898438 A 1.988 1.988 0 0 0 2 8 L 2 13 C 2 14.108 2.892 15 4 15 L 12 15 C 12.109 15 12.214359 14.98475 12.318359 14.96875 L 11.349609 14 L 4 14 C 3.446 14 3 13.554 3 13 L 3 8 C 3 7.446 3.446 7 4 7 L 4.3496094 7 L 3.4394531 6.0898438 z " />
  <path
     id="path2"
     style="fill:currentColor"
     class="ColorScheme-NegativeText error"
     d="M 1.4394531 0.56054688 L 0.55664062 1.4414062 L 14.556641 15.441406 L 15.439453 14.560547 L 1.4394531 0.56054688 z " />
</svg>

<svg width="16" height="16" version="1.1" xmlns="http://www.w3.org/2000/svg">
 <path d="m8 0c-2.216 0-4 1.784-4 4v0.885l1 1v-1.885c0-1.662 1.338-3 3-3 1.662 0 3 1.338 3 3v2h-5.885l1 1h5.885c0.554 0 1 0.446 1 1v5a0.984 0.984 0 0 1-0.246 0.639l0.715 0.714c0.328-0.356 0.531-0.829 0.531-1.353v-5c0-1.108-0.892-2-2-2v-2c0-2.216-1.784-4-4-4zm-4.56 6.09a1.988 1.988 0 0 0-1.44 1.91v5c0 1.108 0.892 2 2 2h8c0.109 0 0.214-0.015 0.318-0.031l-0.968-0.969h-7.35c-0.554 0-1-0.446-1-1v-5c0-0.554 0.446-1 1-1h0.35z" fill="#f2f2f2"/>
 <path class="error" d="M1.44.56l-.883.882 14 14 .883-.882z" color="#bebebe" fill="#c6262e" overflow="visible" style="isolation:auto;mix-blend-mode:normal"/>
</svg>
